groups/alkanes/isopentyl.svg

<?xml version='1.0' encoding='iso-8859-1'?>
<svg version='1.1' baseProfile='full'
              xmlns='http://www.w3.org/2000/svg'
                      xmlns:rdkit='http://www.rdkit.org/xml'
                      xmlns:xlink='http://www.w3.org/1999/xlink'
                  xml:space='preserve'
width='256px' height='256px' viewBox='0 0 256 256'>
<!-- END OF HEADER -->
<rect style='opacity:1.0;fill:#FFFFFF;stroke:none' width='256.0' height='256.0' x='0.0' y='0.0'> </rect>
<path class='bond-0 atom-0 atom-1' d='M 25.5,156.8 L 69.3,131.4' style='fill:none;fill-rule:evenodd;stroke:#000000;stroke-width:2.0px;stroke-linecap:butt;stroke-linejoin:miter;stroke-opacity:1' />
<path class='bond-1 atom-1 atom-2' d='M 69.3,131.4 L 113.1,156.7' style='fill:none;fill-rule:evenodd;stroke:#000000;stroke-width:2.0px;stroke-linecap:butt;stroke-linejoin:miter;stroke-opacity:1' />
<path class='bond-2 atom-2 atom-3' d='M 113.1,156.7 L 156.9,131.4' style='fill:none;fill-rule:evenodd;stroke:#000000;stroke-width:2.0px;stroke-linecap:butt;stroke-linejoin:miter;stroke-opacity:1' />
<path class='bond-3 atom-3 atom-4' d='M 156.9,131.4 L 190.0,150.4' style='fill:none;fill-rule:evenodd;stroke:#000000;stroke-width:2.0px;stroke-linecap:butt;stroke-linejoin:miter;stroke-opacity:1' />
<path class='bond-4 atom-3 atom-5' d='M 156.9,131.4 L 156.9,97.6' style='fill:none;fill-rule:evenodd;stroke:#000000;stroke-width:2.0px;stroke-linecap:butt;stroke-linejoin:miter;stroke-opacity:1' />
<path d='M 67.1,132.7 L 69.3,131.4 L 71.5,132.7' style='fill:none;stroke:#000000;stroke-width:2.0px;stroke-linecap:butt;stroke-linejoin:miter;stroke-miterlimit:10;stroke-opacity:1;' />
<path d='M 110.9,155.4 L 113.1,156.7 L 115.3,155.4' style='fill:none;stroke:#000000;stroke-width:2.0px;stroke-linecap:butt;stroke-linejoin:miter;stroke-miterlimit:10;stroke-opacity:1;' />
<path class='atom-1' d='M38.133,178.666 C39.7756,177.717 38.5089,175.526 36.8664,176.476 C35.2238,177.426 33.9572,175.236 35.5997,174.286 C37.2423,173.336 35.9756,171.146 34.3331,172.096 C32.6905,173.046 31.4239,170.856 33.0664,169.906 C34.709,168.956 33.4423,166.766 31.7998,167.715 C30.1572,168.665 28.8906,166.475 30.5331,165.525 C32.1757,164.575 30.909,162.385 29.2665,163.335 C27.6239,164.285 26.3573,162.095 27.9998,161.145 C29.6424,160.195 28.3757,158.005 26.7332,158.955 C25.0906,159.905 23.824,157.714 25.4665,156.764 C27.1091,155.815 25.8424,153.624 24.1999,154.574 C22.5573,155.524 21.2907,153.334 22.9332,152.384 C24.5758,151.434 23.3091,149.244 21.6666,150.194 C20.024,151.144 18.7574,148.954 20.3999,148.004 C22.0425,147.054 20.7758,144.864 19.1333,145.814 C17.4907,146.763 16.224,144.573 17.8666,143.623 C19.5092,142.673 18.2425,140.483 16.6,141.433 C14.9574,142.383 13.6907,140.193 15.3333,139.243 C16.9759,138.293 15.7092,136.103 14.0667,137.053 C12.4241,138.003 11.1574,135.812 12.8,134.863' style='fill:none;stroke:#7F7F7F;stroke-width:2.0px;stroke-linecap:butt;stroke-linejoin:miter;stroke-opacity:1' />
<text x='191.6' y='171.8' class='atom-4' style='font-size:30px;font-style:normal;font-weight:normal;fill-opacity:1;stroke:none;font-family:sans-serif;text-anchor:start;fill:#000000' >C</text>
<text x='212.6' y='171.8' class='atom-4' style='font-size:30px;font-style:normal;font-weight:normal;fill-opacity:1;stroke:none;font-family:sans-serif;text-anchor:start;fill:#000000' >H</text>
<text x='233.5' y='183.9' class='atom-4' style='font-size:20px;font-style:normal;font-weight:normal;fill-opacity:1;stroke:none;font-family:sans-serif;text-anchor:start;fill:#000000' >3</text>
<text x='147.8' y='95.9' class='atom-5' style='font-size:30px;font-style:normal;font-weight:normal;fill-opacity:1;stroke:none;font-family:sans-serif;text-anchor:start;fill:#000000' >C</text>
<text x='168.7' y='95.9' class='atom-5' style='font-size:30px;font-style:normal;font-weight:normal;fill-opacity:1;stroke:none;font-family:sans-serif;text-anchor:start;fill:#000000' >H</text>
<text x='189.7' y='108.1' class='atom-5' style='font-size:20px;font-style:normal;font-weight:normal;fill-opacity:1;stroke:none;font-family:sans-serif;text-anchor:start;fill:#000000' >3</text>
</svg>

<svg height="256" viewBox="0 0 256 256" width="256" xmlns="http://www.w3.org/2000/svg"><path d="m0 0h256v256h-256z" fill="#fff"/><g fill="none" stroke-width="2"><path d="m25.5 156.8 43.8-25.4" stroke="#000"/><path d="m69.3 131.4 43.8 25.3" stroke="#000"/><path d="m113.1 156.7 43.8-25.3" stroke="#000"/><path d="m156.9 131.4 33.1 19" stroke="#000"/><path d="m156.9 131.4v-33.8" stroke="#000"/><path d="m67.1 132.7 2.2-1.3 2.2 1.3" stroke="#000" stroke-miterlimit="10"/><path d="m110.9 155.4 2.2 1.3 2.2-1.3" stroke="#000" stroke-miterlimit="10"/><path d="m38.133 178.666c1.643-.949.376-3.14-1.267-2.19-1.642.95-2.909-1.24-1.266-2.19 1.642-.95.376-3.14-1.267-2.19-1.642.95-2.909-1.24-1.267-2.19 1.643-.95.376-3.14-1.266-2.191-1.643.95-2.909-1.24-1.267-2.19 1.643-.95.376-3.14-1.266-2.19-1.643.95-2.91-1.24-1.267-2.19 1.642-.95.376-3.14-1.267-2.19-1.642.95-2.909-1.241-1.266-2.191 1.642-.949.375-3.14-1.267-2.19-1.643.95-2.909-1.24-1.267-2.19 1.643-.95.376-3.14-1.266-2.19-1.643.95-2.91-1.24-1.267-2.19s.376-3.14-1.267-2.19c-1.642.949-2.909-1.241-1.266-2.191 1.642-.95.376-3.14-1.267-2.19s-2.909-1.24-1.267-2.19c1.643-.95.376-3.14-1.266-2.19-1.643.95-2.91-1.241-1.267-2.19" stroke="#7f7f7f"/></g><text font-family="sans-serif" font-size="30" x="191.6" y="171.8">C</text><text font-family="sans-serif" font-size="30" x="212.6" y="171.8">H</text><text font-family="sans-serif" font-size="20" x="233.5" y="183.9">3</text><text font-family="sans-serif" font-size="30" x="147.8" y="95.9">C</text><text font-family="sans-serif" font-size="30" x="168.7" y="95.9">H</text><text font-family="sans-serif" font-size="20" x="189.7" y="108.1">3</text></svg>
